X: 4411
T: Bondpolska
R: waltz
M: 3/4
K: Aminor
|:e>B c>B A>^G|A>B (3cdc (3Bcd|e>B c>B A>^G|1 A2 E4:|2 A2 A4||
K:Emin
|:B>^d e>f (3gfg|(3aga b>a g>f|1 e>^d e>g f>e|(3^dfd B2 B2:|2 e>^d e>g (3f^df|e2 e4||

